svgs/duotone/plug-circle-plus.svg

<svg xmlns="http://www.w3.org/2000/svg" viewBox="0 0 576 512"><!--! Font Awesome Pro 6.6.0 by @fontawesome - https://fontawesome.com License - https://fontawesome.com/license (Commercial License) Copyright 2024 Fonticons, Inc. --><defs><style>.fa-secondary{opacity:.4}</style></defs><path class="fa-secondary" d="M0 192c0-17.7 14.3-32 32-32l320 0c17.7 0 32 14.3 32 32c0 2.3-.3 4.6-.7 6.8C309.8 220 256 287.7 256 368c0 11.4 1.1 22.5 3.1 33.3c-11.1 5.1-22.9 9-35.1 11.5l0 67.2c0 17.7-14.3 32-32 32s-32-14.3-32-32l0-67.2C87 398 32 333.4 32 256l0-32c-17.7 0-32-14.3-32-32zM64 32C64 14.3 78.3 0 96 0s32 14.3 32 32l0 96-64 0 0-96zm192 0c0-17.7 14.3-32 32-32s32 14.3 32 32l0 96-64 0 0-96z"/><path class="fa-primary" d="M288 368a144 144 0 1 1 288 0 144 144 0 1 1 -288 0zm144-80c-8.8 0-16 7.2-16 16l0 48-48 0c-8.8 0-16 7.2-16 16s7.2 16 16 16l48 0 0 48c0 8.8 7.2 16 16 16s16-7.2 16-16l0-48 48 0c8.8 0 16-7.2 16-16s-7.2-16-16-16l-48 0 0-48c0-8.8-7.2-16-16-16z"/></svg>

<svg xmlns="http://www.w3.org/2000/svg" viewBox="0 0 576 512"><!--! Font Awesome Pro 6.5.2 by @fontawesome - https://fontawesome.com License - https://fontawesome.com/license (Commercial License) Copyright 2024 Fonticons, Inc. --><defs><style>.fa-secondary{opacity:.4}</style></defs><path class="fa-secondary" d="M128 32v96H64V32C64 14.3 78.3 0 96 0s32 14.3 32 32zm192 0v96H256V32c0-17.7 14.3-32 32-32s32 14.3 32 32zM0 192c0-17.7 14.3-32 32-32H352c17.7 0 32 14.3 32 32c0 2.3-.3 4.6-.7 6.8C309.8 220 256 287.7 256 368c0 11.4 1.1 22.5 3.1 33.3c-11.1 5.1-22.9 9-35.1 11.5V480c0 17.7-14.3 32-32 32s-32-14.3-32-32V412.8C87 398 32 333.4 32 256V224c-17.7 0-32-14.3-32-32z"/><path class="fa-primary" d="M288 368a144 144 0 1 1 288 0 144 144 0 1 1 -288 0zm144-80c-8.8 0-16 7.2-16 16v48H368c-8.8 0-16 7.2-16 16s7.2 16 16 16h48v48c0 8.8 7.2 16 16 16s16-7.2 16-16V384h48c8.8 0 16-7.2 16-16s-7.2-16-16-16H448V304c0-8.8-7.2-16-16-16z"/></svg>
